_inc/images/systems/logos/auto-at2players.svg

<svg viewBox="0 0 200 40" xmlns="http://www.w3.org/2000/svg">
    <path d="M71.626 24.845h-3.72l-.78 4.53h-5.7l3.3-18.75h9c3.4 0 5.1 1.58 5.1 4.74 0 1.5-.21 2.855-.63 4.065-.42 1.21-.885 2.17-1.395 2.88s-1.21 1.31-2.1 1.8c-.89.49-1.915.735-3.075.735Zm-2.07-9.42-.81 4.62h1.32c.68 0 1.195-.075 1.545-.225.35-.15.575-.495.675-1.035.26-1.48.39-2.29.39-2.43 0-.38-.15-.63-.45-.75-.3-.12-.75-.18-1.35-.18Zm20.459 13.95h-11.4l3.3-18.75h5.7l-2.46 13.95h5.7Zm4.139 0h-6l7.89-18.75h8.82l1.32 18.75h-6.03l-.12-2.97h-4.71Zm5.13-12.99-2.1 5.25h2.4v-5.25Zm14.489-5.76.39 6.6h.21l2.76-6.6h6.3l-7.56 13.65-.87 5.1h-5.7l.87-5.1-2.7-13.65Zm20.099 11.67h-5.7l-.39 2.28h6.99l-.84 4.8h-12.69l3.3-18.75h12.54l-1.56 4.8h-6.15l-.42 2.52h5.7Zm18.809 7.08h-6.27l-1.38-5.58h-1.23l-.96 5.58h-5.7l3.3-18.75h9c3.42 0 5.13 1.53 5.13 4.59 0 1.26-.19 2.46-.57 3.6-.7 2.16-1.8 3.6-3.3 4.32Zm-7.41-13.95-.66 3.75h1.32c.68 0 1.195-.075 1.545-.225.35-.15.59-.58.72-1.29.13-.71.195-1.145.195-1.305 0-.4-.155-.655-.465-.765-.31-.11-.815-.165-1.515-.165Zm9.298 13.62 1.68-4.95c1.68.46 3.22.69 4.62.69s2.53-.06 3.39-.18l.24-1.5-2.49-.24c-1.9-.18-3.245-.61-4.035-1.29s-1.185-1.64-1.185-2.88c0-.54.06-1.14.18-1.8.46-2.56 1.295-4.32 2.505-5.28s3.085-1.44 5.625-1.44 4.78.25 6.72.75l-1.56 4.8c-1.74-.3-3.14-.45-4.2-.45s-1.96.05-2.7.15l-.24 1.47 2.01.21c2.04.22 3.49.705 4.35 1.455.86.75 1.29 1.755 1.29 3.015 0 1.28-.28 2.6-.84 3.96-.28.7-.585 1.285-.915 1.755-.33.47-.75.87-1.26 1.2-.51.33-.975.58-1.395.75-.42.17-.95.295-1.59.375-.94.14-2.09.21-3.45.21-2.48 0-4.73-.26-6.75-.78Z" style="white-space:pre;fill:#fff"/>
    <path d="M36.752 20.001c2.764 0 5-2.238 5-5.001 0-2.763-2.236-5-5-5-2.763 0-5 2.237-5 5a4.999 4.999 0 0 0 5 5.001Zm3.429 1.428h-.371a7.02 7.02 0 0 1-3.058.715 7.04 7.04 0 0 1-3.058-.715h-.37a5.145 5.145 0 0 0-5.143 5.143v1.286c0 1.182.96 2.143 2.143 2.143h12.857a2.144 2.144 0 0 0 2.143-2.143v-1.286a5.145 5.145 0 0 0-5.143-5.143Zm9.429-1.428a4.286 4.286 0 1 0-.001-8.573 4.286 4.286 0 0 0 .001 8.573Zm2.142 1.428h-.169a6 6 0 0 1-1.973.357 6 6 0 0 1-1.974-.357h-.169c-.911 0-1.75.264-2.487.688 1.089 1.173 1.772 2.732 1.772 4.455v1.714c0 .099-.022.193-.026.286h7.884a2.143 2.143 0 0 0 2.142-2.143c0-2.764-2.236-5-5-5Z" style="fill:#ddd"/>
</svg>

<?xml version="1.0" encoding="utf-8"?>
<svg version="1.1" id="2players" x="0px" y="0px" viewBox="0 0 200 40" xmlns="http://www.w3.org/2000/svg">
  <path d="M 71.626 24.845 L 67.906 24.845 L 67.126 29.375 L 61.426 29.375 L 64.726 10.625 L 73.726 10.625 C 77.126 10.625 78.826 12.205 78.826 15.365 C 78.826 16.865 78.616 18.22 78.196 19.43 C 77.776 20.64 77.311 21.6 76.801 22.31 C 76.291 23.02 75.591 23.62 74.701 24.11 C 73.811 24.6 72.786 24.845 71.626 24.845 Z M 69.556 15.425 L 68.746 20.045 L 70.066 20.045 C 70.746 20.045 71.261 19.97 71.611 19.82 C 71.961 19.67 72.186 19.325 72.286 18.785 C 72.546 17.305 72.676 16.495 72.676 16.355 C 72.676 15.975 72.526 15.725 72.226 15.605 C 71.926 15.485 71.476 15.425 70.876 15.425 Z M 90.015 29.375 L 78.615 29.375 L 81.915 10.625 L 87.615 10.625 L 85.155 24.575 L 90.855 24.575 Z M 94.154 29.375 L 88.154 29.375 L 96.044 10.625 L 104.864 10.625 L 106.184 29.375 L 100.154 29.375 L 100.034 26.405 L 95.324 26.405 Z M 99.284 16.385 L 97.184 21.635 L 99.584 21.635 L 99.584 16.385 Z M 113.773 10.625 L 114.163 17.225 L 114.373 17.225 L 117.133 10.625 L 123.433 10.625 L 115.873 24.275 L 115.003 29.375 L 109.303 29.375 L 110.173 24.275 L 107.473 10.625 Z M 133.872 22.295 L 128.172 22.295 L 127.782 24.575 L 134.772 24.575 L 133.932 29.375 L 121.242 29.375 L 124.542 10.625 L 137.082 10.625 L 135.522 15.425 L 129.372 15.425 L 128.952 17.945 L 134.652 17.945 Z M 152.681 29.375 L 146.411 29.375 L 145.031 23.795 L 143.801 23.795 L 142.841 29.375 L 137.141 29.375 L 140.441 10.625 L 149.441 10.625 C 152.861 10.625 154.571 12.155 154.571 15.215 C 154.571 16.475 154.381 17.675 154.001 18.815 C 153.301 20.975 152.201 22.415 150.701 23.135 Z M 145.271 15.425 L 144.611 19.175 L 145.931 19.175 C 146.611 19.175 147.126 19.1 147.476 18.95 C 147.826 18.8 148.066 18.37 148.196 17.66 C 148.326 16.95 148.391 16.515 148.391 16.355 C 148.391 15.955 148.236 15.7 147.926 15.59 C 147.616 15.48 147.111 15.425 146.411 15.425 Z M 154.569 29.045 L 156.249 24.095 C 157.929 24.555 159.469 24.785 160.869 24.785 C 162.269 24.785 163.399 24.725 164.259 24.605 L 164.499 23.105 L 162.009 22.865 C 160.109 22.685 158.764 22.255 157.974 21.575 C 157.184 20.895 156.789 19.935 156.789 18.695 C 156.789 18.155 156.849 17.555 156.969 16.895 C 157.429 14.335 158.264 12.575 159.474 11.615 C 160.684 10.655 162.559 10.175 165.099 10.175 C 167.639 10.175 169.879 10.425 171.819 10.925 L 170.259 15.725 C 168.519 15.425 167.119 15.275 166.059 15.275 C 164.999 15.275 164.099 15.325 163.359 15.425 L 163.119 16.895 L 165.129 17.105 C 167.169 17.325 168.619 17.81 169.479 18.56 C 170.339 19.31 170.769 20.315 170.769 21.575 C 170.769 22.855 170.489 24.175 169.929 25.535 C 169.649 26.235 169.344 26.82 169.014 27.29 C 168.684 27.76 168.264 28.16 167.754 28.49 C 167.244 28.82 166.779 29.07 166.359 29.24 C 165.939 29.41 165.409 29.535 164.769 29.615 C 163.829 29.755 162.679 29.825 161.319 29.825 C 158.839 29.825 156.589 29.565 154.569 29.045 Z" style="white-space: pre; fill: rgb(255, 255, 255);"/>
  <path d="M 36.752 20.001 C 39.516 20.001 41.752 17.763 41.752 15 C 41.752 12.237 39.516 10 36.752 10 C 33.989 10 31.752 12.237 31.752 15 C 31.752 17.763 33.989 20.001 36.752 20.001 Z M 40.181 21.429 L 39.81 21.429 C 38.882 21.876 37.851 22.144 36.752 22.144 C 35.654 22.144 34.627 21.876 33.694 21.429 L 33.324 21.429 C 30.485 21.429 28.181 23.733 28.181 26.572 L 28.181 27.858 C 28.181 29.04 29.141 30.001 30.324 30.001 L 43.181 30.001 C 44.364 30.001 45.324 29.04 45.324 27.858 L 45.324 26.572 C 45.324 23.733 43.02 21.429 40.181 21.429 Z M 49.61 20.001 C 51.976 20.001 53.895 18.08 53.895 15.714 C 53.895 13.348 51.976 11.429 49.61 11.429 C 47.243 11.429 45.324 13.348 45.324 15.714 C 45.324 18.08 47.243 20.001 49.61 20.001 Z M 51.752 21.429 L 51.583 21.429 C 50.962 21.644 50.306 21.786 49.61 21.786 C 48.913 21.786 48.257 21.644 47.636 21.429 L 47.467 21.429 C 46.556 21.429 45.717 21.693 44.98 22.117 C 46.069 23.29 46.752 24.849 46.752 26.572 L 46.752 28.286 C 46.752 28.385 46.73 28.479 46.726 28.572 L 54.61 28.572 C 55.793 28.572 56.752 27.611 56.752 26.429 C 56.752 23.665 54.516 21.429 51.752 21.429 Z" style="fill: rgb(221, 221, 221);"/>
</svg>
